X:1009
T:My horses
C:anon.
O:Hungary
Z:Transcribed by Frank Nordberg - http://www.musicaviva.com
F:http://abc.musicaviva.com/tunes/hungary/my-horses.abc
V:1 Program 1 71 %Clarinet
M:2/4
L:1/8
Q:240
K:Dm
.d.d (c/B/)A|GA2A|.d.d (c/B/)A|GA2B|AG FG|AG2F|EFE2|DD2D:|
W:
W:
W:  From Musica Viva - http://www.musicaviva.com
W:  the Internet center for free sheet music downloads.

